24x24/apps/europa-universalis-IV.svg

<svg xmlns="http://www.w3.org/2000/svg" width="24" height="24" version="1">
 <circle style="opacity:0.2" cx="12" cy="12.5" r="10"/>
 <circle style="fill:#846847" cx="12" cy="12" r="10"/>
 <circle style="opacity:0.2" cx="12" cy="12.5" r="8"/>
 <circle style="fill:#a4946c" cx="12" cy="12" r="8"/>
 <path style="opacity:0.1" d="M 12,4.5 10.357422,9.428711 7.5,8 8.928711,10.857422 4,12.5 8.928711,14.142578 7.5,17 10.357422,15.571289 12,20.5 13.642578,15.571289 16.5,17 15.071289,14.142578 20,12.5 15.071289,10.857422 16.5,8 13.642578,9.428711 Z"/>
 <path style="fill:#d8cbb8" d="M 7.5,7.5 12,12 H 9.75 Z"/>
 <path style="fill:#5d472e" d="M 7.5,7.5 12,12 V 9.75 Z"/>
 <path style="fill:#d8cbb8" d="M 16.5,16.5 12,12 h 2.25 z"/>
 <path style="fill:#5d472e" d="M 16.5,16.5 12,12 v 2.25 z"/>
 <path style="fill:#d8cbb8" d="M 16.5,7.5 12,12 V 9.75 Z"/>
 <path style="fill:#5d472e" d="M 16.5,7.5 12,12 h 2.25 z"/>
 <path style="fill:#d8cbb8" d="M 7.5,16.5 12,12 v 2.25 z"/>
 <path style="fill:#5d472e" d="M 7.5,16.5 12,12 H 9.75 Z"/>
 <path style="opacity:0.1;fill:#f4f4f7" d="M 12,2 A 10,10 0 0 0 2,12 10,10 0 0 0 2.0098,12.293 10,10 0 0 1 12,2.5 10,10 0 0 1 21.99,12.207 10,10 0 0 0 22,12 10,10 0 0 0 12,2 Z"/>
 <path style="fill:#d8cbb8" d="m 12,4 v 8 l -2,-2 z"/>
 <path style="fill:#5d472e" d="m 12,4 v 8 l 2,-2 z"/>
 <path style="fill:#d8cbb8" d="m 12,20 v -8 l 2,2 z"/>
 <path style="fill:#5d472e" d="m 12,20 v -8 l -2,2 z"/>
 <path style="fill:#d8cbb8" d="m 20,12 h -8 l 2,-2 z"/>
 <path style="fill:#5d472e" d="m 20,12 h -8 l 2,2 z"/>
 <path style="fill:#d8cbb8" d="m 4,12 h 8 l -2,2 z"/>
 <path style="fill:#5d472e" d="m 4,12 h 8 l -2,-2 z"/>
 <circle style="fill:#d3cbb7" cx="31.319" cy="11.567" r="8"/>
 <path style="fill:#b59975" d="m 31.318885,19.566563 v -8 l 2,2 z"/>
</svg>

<svg xmlns="http://www.w3.org/2000/svg" width="24" height="24" version="1"><circle style="opacity:.2" cx="12" cy="12.5" r="10"/><circle style="fill:#846847" cx="12" cy="12" r="10"/><circle style="opacity:.2" cx="12" cy="12.5" r="8"/><circle style="fill:#a4946c" cx="12" cy="12" r="8"/><path style="opacity:.1" d="m12 4.5-1.643 4.929L7.5 8l1.429 2.857L4 12.5l4.929 1.643L7.5 17l2.857-1.429L12 20.5l1.643-4.929L16.5 17l-1.429-2.857L20 12.5l-4.929-1.643L16.5 8l-2.857 1.429z"/><path style="fill:#d8cbb8" d="M7.5 7.5 12 12H9.75z"/><path style="fill:#5d472e" d="M7.5 7.5 12 12V9.75z"/><path style="fill:#d8cbb8" d="M16.5 16.5 12 12h2.25z"/><path style="fill:#5d472e" d="M16.5 16.5 12 12v2.25z"/><path style="fill:#d8cbb8" d="M16.5 7.5 12 12V9.75z"/><path style="fill:#5d472e" d="M16.5 7.5 12 12h2.25z"/><path style="fill:#d8cbb8" d="M7.5 16.5 12 12v2.25z"/><path style="fill:#5d472e" d="M7.5 16.5 12 12H9.75z"/><path style="opacity:.1;fill:#f4f4f7" d="M12 2A10 10 0 0 0 2 12a10 10 0 0 0 .01.293A10 10 0 0 1 12 2.5a10 10 0 0 1 9.99 9.707A10 10 0 0 0 22 12 10 10 0 0 0 12 2z"/><path style="fill:#d8cbb8" d="M12 4v8l-2-2z"/><path style="fill:#5d472e" d="M12 4v8l2-2z"/><path style="fill:#d8cbb8" d="M12 20v-8l2 2z"/><path style="fill:#5d472e" d="M12 20v-8l-2 2z"/><path style="fill:#d8cbb8" d="M20 12h-8l2-2z"/><path style="fill:#5d472e" d="M20 12h-8l2 2z"/><path style="fill:#d8cbb8" d="M4 12h8l-2 2z"/><path style="fill:#5d472e" d="M4 12h8l-2-2z"/><circle style="fill:#d3cbb7" cx="31.319" cy="11.567" r="8"/><path style="fill:#b59975" d="M31.319 19.567v-8l2 2z"/></svg>
